!!!!SEGMENT: pl-wn--sd-xvi-qu-273--046_gomolka-mikolaj--bog-wszechmocny-bog-prawdziwy.krn
!!!cenid: 15xx:251
!!!COM: Gomółka, Mikołaj
!!!COM-rismid: pe30013343
!!!CDT: ~1535->1591/04/30
!!!CNT: Polish
!!!GTL: Melodiae na psalterz polski
!!!OTL: XLVI. Bóg wszechmocny, Bóg prawdziwy,
!!!ONB: PSALM. XLVI. Deus noster refugium, et virtus: adiutor in tribulationibus.
!!!PDT: 1580
!!!AGN: Sacred
!!!SMS-siglum: PL-Wn
!!!SMS-shelfmark: SD XVI.Qu.273
!!!SMS-shelfwork: 046 G
!!!NIFC-rismid:
!!!ONB-nifc: Melodiae na psalterz polski
**kern	**text	**kern	**text	**kern	**text	**kern	**text
*part4	*part4	*part3	*part3	*part2	*part2	*part1	*part1
*staff4	*staff4	*staff3	*staff3	*staff2	*staff2	*staff1	*staff1
*clefF3	*	*clefC3	*	*clefC2	*	*clefG2	*
*k[b-B-]	*	*k[b-]	*	*k[b-]	*	*k[b-]	*
*c:	*	*c:	*	*c:	*	*c:	*
*M2/1	*	*M2/1	*	*M2/1	*	*M2/1	*
*met(C|)	*	*met(C|)	*	*met(C|)	*	*met(C|)	*
*I"BASSUS.	*	*I"TENOR.	*	*I"ALTUS.	*	*I"CANTUS.	*
=1-	=1	=1-	=1	=1-	=1	=1-	=1
!LO:TX:t=P:dwa bemole przy kluczu:problem	!	!	!	!	!	!	!
1G\	BÓg	1g\	BÓg	1d/	BÓg	1g/	BÓg
2G\	wszech-	2g\	wszech-	2d/	wszech-	2b-/	wszech-
2A\	-(moc-	4f\	-(moc-	4a\	-mo(c-	2cc\	-m(oc-
.	.	4e\	.	4g\	.	.	.
=2-	=2	=2-	=2	=2-	=2	=2-	=2
1.B-\	-ny)	1.d\	-ny)	1.f\	-ny)	1.dd\	-ny)
2BB-/	bóg	2d\	bóg	2f\	bóg	2dd\	bóg
=3-	=3	=3-	=3	=3-	=3	=3-	=3
2BB-/	praw-	2d\	pra(w-	2b-\	p(raw-	2ff\	praw-
2C/	-(dzi-	4c/	-dzi-	2g\	-dzi-	2ee-\X	-(dzi-
.	.	4B-/	.	.	.	.	.
2D/	-wy)	2A/	-wy)	2f\	-wy)	2dd\	-wy)
2G\	O-	2B-/	O-	2g\	O-	2dd\	O-
=4-	=4	=4-	=4	=4-	=4	=4-	=4
2G\	-broń-	4B-/	-broń-	2g\	-broń-	2dd\	-broń-
.	.	4c\	.	.	.	.	.
!!LO:PB:g=original
2G\	-cá	4d\	-cá	2g\	-cá	2b-/	-cá
.	.	8c\L	nász	.	.	.	.
.	.	8d\J	.	.	.	.	.
!	!	!	!	!	!	!LO:SIC:s=2.ee-:v	!
1E/	nász	2e\	nie-	2.b-\	nász	2.eeny\	nász
.	.	1e\	-wąt-	.	.	.	.
.	.	.	.	4a\	.	4dd\	.
=5-	=5	=5-	=5	=5-	=5	=5-	=5
2E/	nie-	.	.	2g\	nie-	2cc\	nie-
2BB-/	-wąt-	2d\	-pli-	2f\	-wąt-	1b-\	-wąt-
2E/	-(pli-	2c/	-li-	2g\	-(pli-	.	.
2F\	-wy,)	2c/	-wy,	2f\	.	2a/	-(pli-
=6-	=6	=6-	=6	=6-	=6	=6-	=6
2G\	On	2B-/	.	2d/	-wy,)	2b-/	-wy,)
2G\	w u-	2d\	On	2g\	On	2b-/	On
2D/	-ći-	2f\	w u-	2f\	w u-	2.b-/	w u-
!LO:SIC:s=2E-:v	!	!	!	!	!	!	!
2E/	-skách	2e-X\	-ći-	4g\	-ći-	.	.
.	.	.	.	4a\	.	4cc\	.
=7-	=7	=7-	=7	=7-	=7	=7-	=7
2BB-/	nas	1d\	-sk(ách)	2b-\	-(skách)	2.dd\	-ći-
4B-\	rá-	.	.	2f\	nas	.	.
4A\	.	.	.	.	.	4cc\	.
4G\	-tu-	2d\	nas	2g\	rá-	2b-\	skách
4F\	.	.	.	.	.	.	.
1E/	-ie,	4c/	rá-	2g\	-tu-	4ee\	nas
.	.	4B-/	.	.	.	4dd\	.
=8-	=8	=8-	=8	=8-	=8	=8-	=8
.	.	1c\	-tu-	2g\	-ie,	4cc\	rá-
.	.	.	.	.	.	2b-/	-tu-
2F/	.	.	.	4f\	.	.	.
.	.	.	.	4e\	.	4a/	.
2BB-/	Ni(ech)	2B-/	-(ie,)	2d/	Niech	2b-/	-(ie,)
2BB-/	ná	2d\	Niech	2B-/	nam	2f/	Niech
=9-	=9	=9-	=9	=9-	=9	=9-	=9
2F/	bo-	2f\	nam	2c/	bo-	2a/	nam
2C/	-iaźń	2e-X\	bo-	2c/	-iaźń	4g/	bo-
.	.	.	.	.	.	4a/	.
2G\	nie	2.d\	-(iaźń)	4d/	.	2b-/	-(iaźń)
.	.	.	.	4e/	.	.	.
2D/	pá-	.	.	2f\	.	2.a/	nie
.	.	4c/	.	.	.	.	.
=10-	=10	=10-	=10	=10-	=10	=10-	=10
!LO:SIC:s=2E-:v	!	!	!	!	!	!	!
2E/	-nu-	2B-/	nie	2e-X/	nie	.	.
.	.	.	.	.	.	4g/	.
2C/	.	2c/	pá	2e-/	pá-	1g/	pá-
1D/	.	1A/	-(nu-	2.d/	-nu-	.	.
.	.	.	.	.	.	2f/	-nu-
.	.	.	.	4c/	.	.	.
=11-	=11	=11-	=11	=11-	=11	=11-	=11
*	*	*	*	*	*	*000/left	*
000G\	-ie.	000G/	-ie.)	000Bn/	-ie.	000g/	-ie.
==	==	==	==	==	==	==	==
*-	*-	*-	*-	*-	*-	*-	*-
!!!RDF**kern: l = terminal long
!!!system-decoration: s1,s2,s3,s4
!!!RDF**kern: > = above
!!!ENC: Marta Lawrence
!!!END: 2020-02-08
!!!URL-scan: https://polona.pl/item/melodiae-na-psalterz-polski,Nzk3MTM4ODQ/117 Scan on Polona
!!!IIIF: https://polona.pl/iiif/item/Nzk3MTM4ODQ/manifest.json
